src/components/mode-tools/icons/flip-horizontal.svg

<?xml version="1.0" encoding="UTF-8" standalone="no"?>
<svg width="20px" height="20px" viewBox="0 0 20 20" version="1.1" xmlns="http://www.w3.org/2000/svg" xmlns:xlink="http://www.w3.org/1999/xlink">
    <!-- Generator: Sketch 43.2 (39069) - http://www.bohemiancoding.com/sketch -->
    <title>flip-horizontal</title>
    <desc>Created with Sketch.</desc>
    <defs></defs>
    <g id="Page-1" stroke="none" stroke-width="1" fill="none" fill-rule="evenodd">
        <g id="flip-horizontal">
            <g transform="translate(2.000000, 3.000000)">
                <circle id="Oval" fill="#575E75" opacity="0.5" cx="8" cy="0.75" r="1"></circle>
                <circle id="Oval" fill="#575E75" opacity="0.5" cx="8" cy="13.25" r="1"></circle>
                <circle id="Oval-Copy" fill="#575E75" opacity="0.5" cx="8" cy="3.875" r="1"></circle>
                <circle id="Oval-Copy-2" fill="#575E75" opacity="0.5" cx="8" cy="7" r="1"></circle>
                <circle id="Oval-Copy-3" fill="#575E75" opacity="0.5" cx="8" cy="10.125" r="1"></circle>
                <path d="M16,3.08425423 L16,10.9157458 C16,11.4342626 15.2574491,11.6956996 14.8235798,11.3282353 L10.2019293,7.41103711 C9.93269025,7.18445835 9.93269025,6.81408922 10.2019293,6.58751046 L14.8235798,2.67176469 C15.2574491,2.30430042 16,2.56573745 16,3.08425423" id="Fill-11" fill="#4C97FF" opacity="0.5"></path>
                <path d="M0,10.9157458 L0,3.08425423 C0,2.56573745 0.742550911,2.30430042 1.17470525,2.67176469 L5.79807074,6.58896289 C6.06730975,6.81554165 6.06730975,7.18591078 5.79807074,7.41248954 L1.17470525,11.3282353 C0.742550911,11.6956996 0,11.4342626 0,10.9157458" id="Fill-14" fill="#4C97FF"></path>
            </g>
        </g>
    </g>
</svg>

<svg width="20" height="20" xmlns="http://www.w3.org/2000/svg"><g transform="translate(2 3)" fill="none" fill-rule="evenodd"><circle fill="#575E75" opacity=".5" cx="8" cy=".75" r="1"/><circle fill="#575E75" opacity=".5" cx="8" cy="13.25" r="1"/><circle fill="#575E75" opacity=".5" cx="8" cy="3.875" r="1"/><circle fill="#575E75" opacity=".5" cx="8" cy="7" r="1"/><circle fill="#575E75" opacity=".5" cx="8" cy="10.125" r="1"/><path d="M16 3.08425v7.8315c0 .51851-.74255.77995-1.17642.41249l-4.62165-3.9172c-.26924-.22658-.26924-.59695 0-.82353l4.62165-3.91575C15.25745 2.3043 16 2.56574 16 3.08426" fill="#4C97FF" opacity=".5"/><path d="M0 10.91575v-7.8315c0-.51851.74255-.77995 1.1747-.41249l4.62337 3.9172c.26924.22658.26924.59695 0 .82353l-4.62336 3.91575C.74255 11.6957 0 11.43426 0 10.91574" fill="#4C97FF"/></g></svg>
